X:1
T:Thanet, 83.36
T:Thanet, 83.36
T:Joseph Jowett, 1823
T:Public Domain Courtesy of the Cyber Hymnal™
C:Joseph Jowett, 1823
Z:Public Domain
Z:Courtesy of the Cyber Hymnal™
%%score ( 1 2 ) ( 3 4 )
L:1/8
Q:1/4=105
M:4/4
K:G
V:1 treble 
V:2 treble 
V:3 bass 
V:4 bass 
V:1
 [DB]2 [FA]2 G3 G | [Fc]2 [GB]2 [GB]2 [FA]2 | [GB]2 [G^c]2 [Fd]4 | [GB]2 [G^c]2 [Fd]4 | %4
 c3 z d [GB]2 (AG) | (G2 F2) [DG]4 |] %6
V:2
 x4 G3 G | x8 | x8 | x8 | G2 (A2 x E2) x2 | D4 x4 |] %6
V:3
 [G,B,]2 [A,C]2 [B,D]3 [B,D] | [A,D]2 [G,D]2 [D,D]2 [D,D]2 | [G,D]2 [E,E]2 D4 | %3
 [G,D]2 [E,E]2 [D,A,]4 | [E,E]2 [F,D]2 [G,D]2 [C,C]2 x | (B,2 A,2) [G,,B,]4 |] %6
V:4
 x8 | x8 | x4 (B,2 A,2) | x8 | x9 | D,4 x4 |] %6

